X:1
T:Title
%%score { ( 1 4 ) | ( 2 3 ) }
L:1/8
M:6/8
K:Bb
V:1 treble nm="Grand Piano"
V:4 treble 
V:2 bass 
V:3 bass 
V:1
 z3 z2[Q:1/4=87] [DF] | [DF][_D=E][=DF] [_EG]2 [EB] | [DF]2 [DB] [Fd]2 [Fd] | c=Bc d2 c | %4
[M:5/8] [DB]-[DB]- [DB]3 |[M:1/8] [DF] |[M:3/4] [DF][_D=E] [=DF] [_EG]2 [EB] | %7
 [DF]2 [DB] [Fd]2 [Fd] | cA [A,F] [C=EA]2 [B,EG] |[M:5/8] [A,F]-[A,F]- [A,F]3 |[M:1/8] [A,EF] | %11
[M:3/4] [DB]>[DA] [DG]D- [DG][DB] | A6 | c>A GF Ac |[M:5/8] d-d- d3 |[M:1/8] F | %16
[M:3/4] de d [=Ec]2 [EG] | cd c B2 G | FB d d2 c |[M:5/8] [DB]-[DB]- [DB]3 |] %20
V:2
 z3 z2 [B,,B,] | [B,,B,]2 [B,,B,] [B,,B,]2 [B,,G,] | [B,,B,]2 [B,,F,] [B,,B,]2 [B,,B,] | %3
 .[A,E]3 z3 |[M:5/8] [B,,F,]-[B,,F,]- [B,,F,]3 |[M:1/8] [B,,B,] | %6
[M:3/4] [B,,B,]2 [B,,B,] [B,,B,]2 [B,,G,] | [B,,B,]2 [B,,F,] [B,,B,]2 [B,,B,] | .A,2 z2 z2 | %9
[M:5/8] F,-F,- F,3 |[M:1/8] F, |[M:3/4] [B,,F,]>[B,,F,] [B,,B,] [B,,B,]2 [B,,F,] | %12
 [C,F,]2 [C,F,] [C,F,]2 [F,A,E] | [F,A,E]>[F,CE] [F,B,E][F,E]- [F,CE][F,A,E] | %14
[M:5/8] [B,,B,]2 [B,,B,] [B,,B,]2 |[M:1/8][K:treble] [B,D] | %16
[M:3/4] FG [G,=B,F][K:bass] [C,_B,]2 [C,B,] | [F,A,E]2 [^F,A,E] [G,B,D]2 [=E,B,_D] | %18
 [F,B,D][F,B,D] [F,B,F] [F,A,F]2 [F,E] |[M:5/8] [B,,F,]-[B,,F,]- [B,,F,]3 |] %20
V:3
 x6 | x6 | x6 | F,-[F,_A,D][F,=A,E] [F,A,F]2 [F,E] |[M:5/8] x5 |[M:1/8] x |[M:3/4] x6 | x6 | %8
 C,-[C,C] C, C,2 C, |[M:5/8] x5 |[M:1/8] x |[M:3/4] x6 | x6 | z2 z A, z2 |[M:5/8] x5 | %15
[M:1/8][K:treble] x |[M:3/4] [G,=B,]2 z2[K:bass] z2 | x6 | x6 |[M:5/8] x5 |] %20
V:4
 x6 | x6 | x6 | x6 |[M:5/8] x5 |[M:1/8] x |[M:3/4] x6 | x6 | F2 z2 z2 |[M:5/8] x5 |[M:1/8] x | %11
[M:3/4] z2 z F z2 | E2 E E2 F | x6 |[M:5/8] F2 F F2 |[M:1/8] x |[M:3/4] x6 | x6 | x6 |[M:5/8] x5 |] %20

